src/assets/healthPage/extraction.svg

<svg height="88" viewBox="0 0 88 88" width="88" xmlns="http://www.w3.org/2000/svg" xmlns:xlink="http://www.w3.org/1999/xlink"><mask id="a" fill="#fff"><path d="m0 0h88v88h-88z" fill="#fff" fill-rule="evenodd"/></mask><g fill="none" fill-rule="evenodd" mask="url(#a)"><g fill-rule="nonzero" transform="translate(-15.65 12.5)"><path d="m19.50036 82.280011h76.1090001c7.8858859-.0090388 14.9918199-4.761905 18.0111109-12.0469006s1.358853-15.6711138-4.208641-21.2559403l-.6171-.55539c-.652142-4.1548164-4.207736-7.2322745-8.41313-7.28178h-11.5191999c-4.7667167.0113089-8.628091 3.8726833-8.6394 8.6394v7.8166c-.0204696.3493904-.0204696.6996795 0 1.04907-5.6454763 5.6774918-14.801 5.7782025-20.57.22627 0-.43197 0-.84337 0-1.27534v-7.8166c-.011309-4.7667167-3.8726834-8.6280911-8.6394-8.6394h-11.5192c-2.5451209.0126748-4.9545059 1.1496033-6.5824001 3.10607-1.6278941-1.9564667-4.0372791-3.0933952-6.5824-3.10607h-11.5192c-4.2432856.0109732-7.84728292 3.1088402-8.49540999 7.30235-5.92336361 5.4311885-7.90344206 13.9424783-4.98562002 21.4304928 2.91782203 7.4880144 10.13457451 12.4156151 18.17099001 12.4071681zm64.8366401-32.5006109c.0112626-2.4946294 2.0307706-4.5141374 4.5254-4.5254h11.5191999c2.49463.0112626 4.514138 2.0307706 4.5254 4.5254v7.8166c0 5.6802486-4.604751 10.285-10.2849999 10.285-5.6802486 0-10.285-4.6047514-10.285-10.285zm-49.3680001 0c.0112627-2.4946294 2.0307707-4.5141374 4.5254001-4.5254h11.5192c2.4946294.0112626 4.5141374 2.0307706 4.5254 4.5254v7.8166c0 5.6802486-4.6047514 10.285-10.285 10.285-5.6802487 0-10.2850001-4.6047514-10.2850001-10.285zm-24.684 0c.0112626-2.4946294 2.0307706-4.5141374 4.5254-4.5254h11.5192c2.4946294.0112626 4.5141374 2.0307706 4.5254 4.5254v7.8166c0 5.6802486-4.6047513 10.285-10.285 10.285-5.6802486 0-10.285-4.6047514-10.285-10.285zm-4.11399999 5.32763v2.48897c.01433482 6.4643367 4.33496779 12.1268127 10.56608979 13.847561 6.2311219 1.7207483 12.845286-.9220414 16.1749102-6.462931 2.7757334 4.6328085 7.9105291 7.3228028 13.2995201 6.9672941s10.1259106-3.6967343 12.26899-8.6540341c3.3059226 2.4813522 7.3239722 3.8303204 11.45749 3.84659 4.1041477-.0839616 8.0745558-1.4746853 11.33407-3.97001 2.5944407 6.4233814 9.3951713 10.0887966 16.1870288 8.7243834 6.7918571-1.3644131 11.6494121-7.371856 11.5619011-14.2988534v-2.48897c2.73838 4.7599588 2.732312 10.6185585-.015922 15.3728345-2.748235 4.7542761-7.821997 7.6834685-13.3134379 7.6863187h-76.1090001c-5.506131.0266247-10.6068725-2.8909191-13.3752111-7.6505933s-2.78223105-10.6358492-.03642889-15.4085599z" fill="#a7958a"/><path d="m69.9380001 53.4820001c1.1360497 0 2.057-.9209503 2.057-2.057v-6.84981h2.65353l-4.71053-8.1662901-4.71053 8.2280001h2.65353v6.7881c0 1.1360497.9209503 2.057 2.057 2.057z" fill="#a7958a"/><path d="m56.8760501 15.38636c.0999494.2489837.1556396.5135124.16456.78166 0 .30855-.12342.6171-.18513.90508-.1362799.5486761-.2393172 1.1050778-.30855 1.66617-.5580424 5.3596601 1.8763377 10.5919965 6.33556 13.61734.5453552.3709946 1.1917863.5649239 1.8513.55539h.32912c1.6358282-.2729903 2.8305997-1.6945068 2.81809-3.35291v-4.114c-.0278682-.6384475.1993311-1.2617653.6315059-1.7325271.4321749-.4707619 1.0338367-.7503107 1.6723341-.7770129 1.3222611.1901008 2.2787066 1.3610761 2.20099 2.69467v3.97001c.0166696 1.7436547 1.3670616 3.1834766 3.10607 3.31177.694692.0344253 1.3814041-.1607456 1.95415-.55539 5.0810626-3.2735328 7.5130094-9.4195752 6.04758-15.28351 0-.30855-.14399-.59653-.18513-.90508.0090956-.2662383.0576199-.5296564.14399-.78166l.16456-.57596c.4545142-1.9496649.6959132-3.9429312.71995-5.94472999.0656731-1.76949035-.2573127-3.53186929-.94622-5.16307001-1.0159545-2.07165945-3.0839752-3.42139817-5.38934-3.51747-2.653046-.033579-5.2782646.54354681-7.67261 1.68674l-.6171-.22627-.32912-.12342c-.67881-.22627-1.37819-.47311-2.057-.67881-.7755954-.23125561-1.5659057-.40993447-2.36555-.53482-.4289945-.06488373-.8620514-.09925333-1.29591-.10285-.28798 0-1.4399 0-1.72788 0-.5127418.04379106-1.0175572.15443552-1.50161.32912-.7661133.24937012-1.4682559.66363423-2.057 1.21363-.6051991.58889135-1.093728 1.28678973-1.4399 2.057-.7085462 1.6252694-1.032359 3.39216112-.94622 5.16307001.0046967 2.00981839.2463482 4.01207359.71995 5.96529999zm3.78488-9.89416999c.1265733-.28034463.3084865-.53222437.53482-.74052.1694872-.16541399.3730818-.29178304.59653-.37026.1363121-.02122378.2750878-.02122378.4114 0h1.33705.8228c.6052283.09608706 1.2031594.23354249 1.78959.4114.63767.18513 1.25477.4114 1.91301.63767h.30855c.6104289.23674898 1.1960695.53301424 1.74845.88451 1.5883718 1.14795427 3.5420132 1.67477891 5.49219 1.48104.766958-.16291638 1.374598-.74767526 1.5668181-1.50781852.1922202-.76014326-.0644137-1.56345413-.6617381-2.07136148.3833973-.02974415.7685227-.02974415 1.15192 0 .8659596-.04034149 1.6735595.43614244 2.057 1.21363.4188765 1.08669611.587612 2.25378291.49368 3.41462-.022722 1.69047919-.229644 3.37344519-.6171 5.01907999l-.10285.43197c-.2721917.7925421-.3635613 1.6359541-.26741 2.4684 0 .43197.16456.84337.24684 1.25477.0971349.3585568.1726937.7226128.22627 1.09021.3356115 3.2691626-.856088 6.5102816-3.22949 8.78339v-2.32441c.075961-3.5476298-2.6330083-6.536526-6.171-6.80867h-.37026c-3.5041607.1876703-6.2313718 3.1148769-6.171 6.62354v2.40669c-2.2932167-2.2759165-3.4348434-5.4664232-3.10607-8.68054.0486624-.366878.1173314-.7308237.2057-1.09021.1108299-.4133378.2000871-.8321602.26741-1.25477.0975624-.8324403.0061588-1.6761655-.26741-2.4684v-.43197c-.4074976-1.6419921-.6147051-3.3272801-.6171-5.01907999-.1062529-1.13422679.0340893-2.27801616.4114-3.35291z" fill="#55311b"/></g></g></svg>

<?xml version="1.0" encoding="UTF-8"?>
<svg width="88px" height="88px" viewBox="0 0 88 88" version="1.1" xmlns="http://www.w3.org/2000/svg" xmlns:xlink="http://www.w3.org/1999/xlink">
    <title>1</title>
    <defs>
        <rect id="path-1" x="0" y="0" width="88" height="88"></rect>
    </defs>
    <g id="Design" stroke="none" stroke-width="1" fill="none" fill-rule="evenodd">
        <g id="Icons-for-tabs" transform="translate(-289.000000, -127.000000)">
            <g id="Group-7" transform="translate(-3.000000, 0.000000)">
                <g id="1" transform="translate(292.000000, 127.000000)">
                    <mask id="mask-2" fill="white">
                        <use xlink:href="#path-1"></use>
                    </mask>
                    <g id="Rectangle"></g>
                    <g id="noun_Remove_2456587" mask="url(#mask-2)">
                        <g transform="translate(-15.650000, 12.500000)" id="Group">
                            <path d="M19.50036,82.280011 L95.6093601,82.280011 C103.495246,82.2709722 110.60118,77.518106 113.620471,70.2331104 C116.639762,62.9481148 114.979324,54.5619966 109.41183,48.9771701 L108.79473,48.4217801 C108.142588,44.2669637 104.586994,41.1895056 100.3816,41.1400001 L88.8624001,41.1400001 C84.0956834,41.151309 80.2343091,45.0126834 80.2230001,49.7794001 L80.2230001,57.5960001 C80.2025305,57.9453905 80.2025305,58.2956796 80.2230001,58.6450701 C74.5775238,64.3225619 65.4220001,64.4232726 59.6530001,58.8713401 C59.6530001,58.4393701 59.6530001,58.0279701 59.6530001,57.5960001 L59.6530001,49.7794001 C59.6416911,45.0126834 55.7803167,41.151309 51.0136001,41.1400001 L39.4944001,41.1400001 C36.9492792,41.1526749 34.5398942,42.2896034 32.912,44.2460701 C31.2841059,42.2896034 28.8747209,41.1526749 26.3296,41.1400001 L14.8104,41.1400001 C10.5671144,41.1509733 6.96311708,44.2488403 6.31499001,48.4423501 C0.391626397,53.8735386 -1.58845205,62.3848284 1.32936999,69.8728429 C4.24719202,77.3608573 11.4639445,82.288458 19.50036,82.280011 Z M84.3370001,49.7794001 C84.3482627,47.2847707 86.3677707,45.2652627 88.8624001,45.2540001 L100.3816,45.2540001 C102.87623,45.2652627 104.895738,47.2847707 104.907,49.7794001 L104.907,57.5960001 C104.907,63.2762487 100.302249,67.8810001 94.6220001,67.8810001 C88.9417515,67.8810001 84.3370001,63.2762487 84.3370001,57.5960001 L84.3370001,49.7794001 Z M34.969,49.7794001 C34.9802627,47.2847707 36.9997707,45.2652627 39.4944001,45.2540001 L51.0136001,45.2540001 C53.5082295,45.2652627 55.5277375,47.2847707 55.5390001,49.7794001 L55.5390001,57.5960001 C55.5390001,63.2762487 50.9342487,67.8810001 45.2540001,67.8810001 C39.5737514,67.8810001 34.969,63.2762487 34.969,57.5960001 L34.969,49.7794001 Z M10.285,49.7794001 C10.2962626,47.2847707 12.3157706,45.2652627 14.8104,45.2540001 L26.3296,45.2540001 C28.8242294,45.2652627 30.8437374,47.2847707 30.855,49.7794001 L30.855,57.5960001 C30.855,63.2762487 26.2502487,67.8810001 20.57,67.8810001 C14.8897514,67.8810001 10.285,63.2762487 10.285,57.5960001 L10.285,49.7794001 Z M6.17100001,55.1070301 L6.17100001,57.5960001 C6.18533483,64.0603368 10.5059678,69.7228128 16.7370898,71.4435611 C22.9682117,73.1643094 29.5823758,70.5215197 32.912,64.9806301 C35.6877334,69.6134386 40.8225291,72.3034329 46.2115201,71.9479242 C51.6005111,71.5924155 56.3374307,68.2511899 58.4805101,63.2938901 C61.7864327,65.7752423 65.8044823,67.1242105 69.9380001,67.1404801 L69.9380001,67.1404801 C74.0421478,67.0565185 78.0125559,65.6657948 81.2720701,63.1704701 C83.8665108,69.5938515 90.6672414,73.2592667 97.4590989,71.8948535 C104.250956,70.5304404 109.108511,64.5229975 109.021,57.5960001 L109.021,55.1070301 C111.75938,59.8669889 111.753312,65.7255886 109.005078,70.4798646 C106.256843,75.2341407 101.183081,78.1633331 95.6916401,78.1661833 L19.58264,78.1661833 C14.076509,78.192808 8.9757675,75.2752642 6.2074289,70.51559 C3.4390903,65.7559158 3.42519785,59.8797408 6.17100001,55.1070301 Z" id="Shape" fill="#A7958A" fill-rule="nonzero"></path>
                            <path d="M69.9380001,53.4820001 C71.0740498,53.4820001 71.9950001,52.5610498 71.9950001,51.4250001 L71.9950001,44.5751901 L74.6485301,44.5751901 L69.9380001,36.4089 L65.2274701,44.6369001 L67.8810001,44.6369001 L67.8810001,51.4250001 C67.8810001,52.5610498 68.8019504,53.4820001 69.9380001,53.4820001 Z" id="Path" fill="#A7958A" fill-rule="nonzero"></path>
                            <path d="M56.8760501,15.38636 C56.9759995,15.6353437 57.0316897,15.8998724 57.0406101,16.16802 C57.0406101,16.47657 56.9171901,16.78512 56.8554801,17.0731 C56.7192002,17.6217761 56.6161629,18.1781778 56.5469301,18.73927 C55.9888877,24.0989301 58.4232678,29.3312665 62.8824901,32.35661 C63.4278453,32.7276046 64.0742764,32.9215339 64.7337901,32.912 L65.0629101,32.912 C66.6987383,32.6390097 67.8935098,31.2174932 67.8810001,29.55909 L67.8810001,25.44509 C67.8531319,24.8066425 68.0803312,24.1833247 68.512506,23.7125629 C68.9446809,23.241801 69.5463427,22.9622522 70.1848401,22.93555 C71.5071012,23.1256508 72.4635467,24.2966261 72.3858301,25.63022 L72.3858301,29.60023 C72.4024997,31.3438847 73.7528917,32.7837066 75.4919001,32.912 C76.1865921,32.9464253 76.8733042,32.7512544 77.4460501,32.35661 C82.5271127,29.0830772 84.9590595,22.9370348 83.4936301,17.0731 C83.4936301,16.76455 83.3496401,16.47657 83.3085001,16.16802 C83.3175957,15.9017817 83.36612,15.6383636 83.4524901,15.38636 L83.6170501,14.8104 C84.0715643,12.8607351 84.3129633,10.8674688 84.3370001,8.86567001 C84.4026732,7.09617966 84.0796874,5.33380072 83.3907801,3.7026 C82.3748256,1.63094055 80.3068049,0.281201829 78.0014401,0.18513 C75.3483941,0.151551001 72.7231755,0.728676812 70.3288301,1.87187 L69.7117301,1.6456 L69.3826101,1.52218 C68.7038001,1.29591 68.0044201,1.04907 67.3256101,0.843370001 C66.5500147,0.612114385 65.7597044,0.43343553 64.9600601,0.30855 C64.5310656,0.243666268 64.0980087,0.209296672 63.6641501,0.2057 C63.3761701,0.2057 62.2242501,0.2057 61.9362701,0.2057 C61.4235283,0.249491056 60.9187129,0.360135515 60.4346601,0.534820001 C59.6685468,0.784190119 58.9664042,1.19845423 58.3776601,1.74845 C57.772461,2.33734135 57.2839321,3.03523973 56.9377601,3.80545 C56.2292139,5.4307194 55.9054011,7.19761112 55.9915401,8.96852001 C55.9962368,10.9783384 56.2378883,12.9805936 56.7114901,14.93382 L56.8760501,15.38636 Z M60.6609301,5.49219001 C60.7875034,5.21184538 60.9694166,4.95996564 61.1957501,4.75167001 C61.3652373,4.58625602 61.5688319,4.45988697 61.7922801,4.38141001 C61.9285922,4.36018623 62.0673679,4.36018623 62.2036801,4.38141001 C62.4710901,4.38141001 63.3350301,4.38141001 63.5407301,4.38141001 L64.3635301,4.38141001 C64.9687584,4.47749707 65.5666895,4.6149525 66.1531201,4.79281001 C66.7907901,4.97794001 67.4078901,5.20421001 68.0661301,5.43048001 L68.3746801,5.43048001 C68.985109,5.66722899 69.5707496,5.96349425 70.1231301,6.31499001 C71.7115019,7.46294428 73.6651433,7.98976892 75.6153201,7.79603001 C76.3822781,7.63311363 76.9899181,7.04835475 77.1821382,6.28821149 C77.3743584,5.52806823 77.1177245,4.72475736 76.5204001,4.21685001 C76.9037974,4.18710586 77.2889228,4.18710586 77.6723201,4.21685001 C78.5382797,4.17650852 79.3458796,4.65299245 79.7293201,5.43048001 C80.1481966,6.51717612 80.3169321,7.68426292 80.2230001,8.84510001 C80.2002781,10.5355792 79.9933561,12.2185452 79.6059001,13.86418 L79.5030501,14.29615 C79.2308584,15.0886921 79.1394888,15.9321041 79.2356401,16.76455 C79.2356401,17.19652 79.4002001,17.60792 79.4824801,18.01932 C79.579615,18.3778768 79.6551738,18.7419328 79.7087501,19.10953 C80.0443616,22.3786926 78.8526621,25.6198116 76.4792601,27.89292 L76.4792601,25.56851 C76.5552211,22.0208802 73.8462518,19.031984 70.3082601,18.75984 L69.9380001,18.75984 C66.4338394,18.9475103 63.7066283,21.8747169 63.7670001,25.38338 L63.7670001,27.79007 C61.4737834,25.5141535 60.3321567,22.3236468 60.6609301,19.10953 C60.7095925,18.742652 60.7782615,18.3787063 60.8666301,18.01932 C60.97746,17.6059822 61.0667172,17.1871598 61.1340401,16.76455 C61.2316025,15.9321097 61.1401989,15.0883845 60.8666301,14.29615 L60.8666301,13.86418 C60.4591325,12.2221879 60.251925,10.5368999 60.2495301,8.84510001 C60.1432772,7.71087322 60.2836194,6.56708385 60.6609301,5.49219001 L60.6609301,5.49219001 Z" id="Shape" fill="#55311B" fill-rule="nonzero"></path>
                        </g>
                    </g>
                </g>
            </g>
        </g>
    </g>
</svg>
